!!!OTL: 1914. Armer Kinder Wanderlied.
!!!ARE: Europa, Mitteleuropa, Deutschland, Westfalen, Paderborn
!!!SCT: E1914
!!!TXL: @@DE
!!!YEM: Copyright 1995, estate of Helmut Schaffrath.
**kern	**text
*ICvox	*
*M3/4	*
*k[]	*
*a:	*
!LO:TX:a:t=Einleitung.	!
!LO:TX:a:t=Paderborniſch.	!
{4e	Jch
=1	=1
4.a	will
8g#	in
8a	Gar-
8b	-ten
=2	=2
8ccL	ge-
8aJ	.
4b}	-hen,
{4ee	o
=3	=3
8ddL	Mut-
8ccJ	.
4b	-ter,
4dd	o
=4	=4
8ccL	Mut-
8bJ	.
4a	-ter,
4cc	o
=5	=5
2b	Mut-
4ee	-ter
=6	=6
2cc;}	mein!
=||	=||
*M3/4	*
{4e	Was
=7	=7
4.a	willſt
8g#	du
8a	in
8b	dem
=8	=8
8cc	Gar-
8a	-ten
2b}	thun,
=9	=9
{4.ee	ſchön-
8dd	-ſte
4ee	Ma-
=10	=10
8ddL	-ri-
8ccJ	.
2b;}	-a?
=11	=11
{4b	Ein
4ee	Blüm-
4dd	-lein
=12	=12
8ddL	pflük-
8ccJ	.
2b}	-ken,
=13	=13
{4b	ein
8ddL	Blüm-
8ccJ	.
4b	-lein
=14	=14
8ccL	pflük-
8bJ	.
4a	-ken,
4cc	o
=15	=15
2b	Mut-
4ee	-ter
=16	=16
2a;}	mein!
==	==
!!!AGN: Kinder - Lied, religioes
!!!ONB: ESAC (Essen Associative Code) Database: ERK3
!!!AMT: simple triple
!!!AIN: vox
!!!EED: Helmut Schaffrath
!!!EEV: 1.0
!!!GTL: Einige Kinderlieder. e) Fromme Reime und Gebete. 
!!!URL-scan: https://rosdok.uni-rostock.de/mcrviewer/recordIdentifier/rosdok_ppn745177999/iview2/phys_0626.iview2?x=188.9681574111819&y=582.1025428837165&scale=0.7014306698522895&rotation=0&layout=singlePageLayout
!!!ENC: Anna Maria Matuszewska
!!!EEV: 2025/09/01
*-	*-
